src/main/resources/icons/WebDeploymentIcons/images/webServerToolWindow.svg

<svg xmlns="http://www.w3.org/2000/svg" width="13" height="13" viewBox="0 0 13 13">
  <g fill="none" fill-rule="evenodd">
    <path fill="#6E6E6E" d="M2 1.20000005L11 1.20000005 11 4 2 4 2 1.20000005zM3 2.10000002L3 3.10000002 5 3.10000002 5 2.10000002 3 2.10000002zM2 5.0999999L11 5.0999999 11 7.89999986 2 7.89999986 2 5.0999999zM3 5.99999988L3 6.99999988 5 6.99999988 5 5.99999988 3 5.99999988zM2 9L11 9 11 11.8 2 11.8 2 9zM3 9.89999998L3 10.9 5 10.9 5 9.89999998 3 9.89999998z"/>
  </g>
</svg>

<svg xmlns="http://www.w3.org/2000/svg" width="13" height="13" viewBox="0 0 13 13"><rect id="frame" width="13" height="13" fill="none"/><path fill="#6E6E6E" d="M2 1.2h9V4H2V1.2zm1 .9v1h2v-1H3zm-1 3h9v2.8H2V5.1zM3 6v1h2V6H3zM2 9h9v2.8H2V9zm1 .9v1h2v-1H3z" fill-rule="evenodd"/></svg>
